X:1
T: Cromartie's Rant
C:
R:Reel
Q: 232
K:F
M:4/4
L:1/8
|:FF F2 A2 c2|B2 G2 G2 c2|FF F2 c2 F2|A2 F2 c2 F2|
Bd cB Ac BA|d2 G2 G2 A2|Bc de fd cB|A2 F2 F2:|
|:cc c2 a2 f2|g2 c2 c2 a2|b2 ag a2 gf|gf ed c2 BA|
Bd fd Ac fc|dc BA GF GA|Bc de fd cB|A2 F2 F4:|
